assets/icons/sun.svg

<?xml version="1.0" encoding="UTF-8" standalone="no"?>
<svg viewBox="0 0 24 24" height="24" width="24" version="1.1" id="svg4" sodipodi:docname="clear.svg" inkscape:version="1.1 (ce6663b3b7, 2021-05-25)"
   xmlns:inkscape="http://www.inkscape.org/namespaces/inkscape"
   xmlns:sodipodi="http://sodipodi.sourceforge.net/DTD/sodipodi-0.dtd"
   xmlns="http://www.w3.org/2000/svg"
   xmlns:svg="http://www.w3.org/2000/svg">
   <defs id="defs8" />
   <sodipodi:namedview id="namedview6" pagecolor="#ffffff" bordercolor="#666666" borderopacity="1.0" inkscape:pageshadow="2" inkscape:pageopacity="0.0" inkscape:pagecheckerboard="0" showgrid="true" width="24px" inkscape:zoom="19.79899" inkscape:cx="5.0255089" inkscape:cy="7.9296975" inkscape:window-width="1920" inkscape:window-height="1043" inkscape:window-x="1920" inkscape:window-y="0" inkscape:window-maximized="1" inkscape:current-layer="svg4" inkscape:snap-page="true" inkscape:snap-center="true">
      <inkscape:grid type="xygrid" id="grid6" />
      <inkscape:grid type="xygrid" id="grid976" dotted="true" spacingx="0.5" spacingy="0.5" empspacing="10" />
   </sodipodi:namedview>
   <path id="path30" style="fill:#808080;fill-rule:evenodd;stroke-width:0.5;stroke-linecap:square;stroke-linejoin:round;fill-opacity:1" d="M 11 2 L 11 5 L 12 5 L 12 2 L 11 2 z M 7.1835938 3.0234375 L 6.3164062 3.5234375 L 7.8164062 6.1210938 L 8.6835938 5.6210938 L 7.1835938 3.0234375 z M 15.816406 3.0234375 L 14.316406 5.6210938 L 15.183594 6.1210938 L 16.683594 3.5234375 L 15.816406 3.0234375 z M 11.5 6 A 5.5 5.5 0 0 0 6 11.5 A 5.5 5.5 0 0 0 11.5 17 A 5.5 5.5 0 0 0 17 11.5 A 5.5 5.5 0 0 0 11.5 6 z M 3.5234375 6.3164062 L 3.0234375 7.1835938 L 5.6210938 8.6835938 L 6.1210938 7.8164062 L 3.5234375 6.3164062 z M 19.476562 6.3164062 L 16.878906 7.8164062 L 17.378906 8.6835938 L 19.976562 7.1835938 L 19.476562 6.3164062 z M 11.5 7 A 4.5 4.5 0 0 1 16 11.5 A 4.5 4.5 0 0 1 11.5 16 A 4.5 4.5 0 0 1 7 11.5 A 4.5 4.5 0 0 1 11.5 7 z M 2 11 L 2 12 L 5 12 L 5 11 L 2 11 z M 18 11 L 18 12 L 21 12 L 21 11 L 18 11 z M 5.6210938 14.316406 L 3.0234375 15.816406 L 3.5234375 16.683594 L 6.1210938 15.183594 L 5.6210938 14.316406 z M 17.378906 14.316406 L 16.878906 15.183594 L 19.476562 16.683594 L 19.976562 15.816406 L 17.378906 14.316406 z M 7.8164062 16.878906 L 6.3164062 19.476562 L 7.1835938 19.976562 L 8.6835938 17.378906 L 7.8164062 16.878906 z M 15.183594 16.878906 L 14.316406 17.378906 L 15.816406 19.976562 L 16.683594 19.476562 L 15.183594 16.878906 z M 11 18 L 11 21 L 12 21 L 12 18 L 11 18 z " />
</svg>

<svg height="24" width="24" xmlns="http://www.w3.org/2000/svg"><path style="fill:gray;stroke-width:.5;stroke-linecap:square;stroke-linejoin:round;fill-opacity:1" d="M11 2v3h1V2h-1zM7.184 3.023l-.868.5 1.5 2.598.868-.5-1.5-2.598zm8.632 0-1.5 2.598.868.5 1.5-2.598-.868-.5zM11.5 6A5.5 5.5 0 0 0 6 11.5a5.5 5.5 0 0 0 5.5 5.5 5.5 5.5 0 0 0 5.5-5.5A5.5 5.5 0 0 0 11.5 6zm-7.977.316-.5.868 2.598 1.5.5-.868-2.598-1.5zm15.954 0-2.598 1.5.5.868 2.598-1.5-.5-.868zM11.5 7a4.5 4.5 0 0 1 4.5 4.5 4.5 4.5 0 0 1-4.5 4.5A4.5 4.5 0 0 1 7 11.5 4.5 4.5 0 0 1 11.5 7zM2 11v1h3v-1H2zm16 0v1h3v-1h-3zM5.621 14.316l-2.598 1.5.5.868 2.598-1.5-.5-.868zm11.758 0-.5.868 2.598 1.5.5-.868-2.598-1.5zM7.816 16.88l-1.5 2.598.868.5 1.5-2.598-.868-.5zm7.368 0-.868.5 1.5 2.598.868-.5-1.5-2.598zM11 18v3h1v-3h-1z"/></svg>
